16x16/apps/apk-icon-editor.svg

<svg height="16" width="16" xmlns="http://www.w3.org/2000/svg"><path d="m16 15.25v-13.5a.748.748 0 0 0 -.75-.75h-13.5a.748.748 0 0 0 -.75.75v13.5c0 .416.335.75.75.75h13.5c.416 0 .75-.334.75-.75z" fill="#89c025"/><path d="m6 3v2h2v-2zm-3 0v2h2v-2zm6 0v2h2v-2zm3 0v2h2v-2zm-6 3v2h2v-2zm-3 0v2h2v-2zm6 0v2h2v-2zm3 0v2h2v-2zm-6 3v2h2v-2zm-3 0v2h2v-2zm6 0v2h2v-2zm3 0v2h2v-2zm-6 3v2h2v-2zm-3 0v2h2v-2zm6 0v2h2v-2zm3 0v2h2v-2z" opacity=".4"/></svg>

<svg height="16" width="16" xmlns="http://www.w3.org/2000/svg">
    <path d="M16 15.25V1.75a.748.748 0 0 0-.75-.75H1.75a.748.748 0 0 0-.75.75v13.5c0 .416.335.75.75.75h13.5c.416 0 .75-.334.75-.75z" fill="#89c025"/>
    <path d="M6 3v2h2V3zM3 3v2h2V3zm6 0v2h2V3zm3 0v2h2V3zM6 6v2h2V6zM3 6v2h2V6zm6 0v2h2V6zm3 0v2h2V6zM6 9v2h2V9zM3 9v2h2V9zm6 0v2h2V9zm3 0v2h2V9zm-6 3v2h2v-2zm-3 0v2h2v-2zm6 0v2h2v-2zm3 0v2h2v-2z" opacity=".4"/>
</svg>
